!!!OTL: 2. Des Deutschen Vaterland.
!!!COM: J. Cotta 
!!!ODT: 1815
!!!ARE: Europa, Mitteleuropa, Deutschland
!!!SCT: B0002
!!!TXL: @@DE
!!!YEM: Copyright 1995, estate of Helmut Schaffrath.
**kern	**text
*ICvox	*
*Ivox	*
*M4/4	*
*met(c)	*
*k[]	*
*C:	*
!LO:TX:a:t=Einʒeln	!
!LO:TX:a:t=Mäßig langſam.	!
{8g	Was
8a	iſt
8b/	des
=1	=1
4.cc	Deut-
8g	-ſchen
4.g	Va-
8f	-ter-
=2	=2
(4fqq	.
2e)	-land?
4r}	.
{4cc	Jſt's
=3	=3
8.cc	Preu-
16a	-ßen-
4a	-land?
4r	.
4cc	Jſt's
=4	=4
8.cc	Schwa-
16g	-ben-
4g	-land?
4r}	.
{4cc	Jſt's,
=5	=5
4.b	wo
8b	am
4.cc	Rhein
8cc	die
=6	=6
4.dd	Re-
8b	-be
4g}	blüht?
{4g	Jſt's
=7	=7
4.cc	wo
8cc	am
4.dd	Velt
8dd	die
=8	=8
4.ee	Mö-
8cc	-ve
4cc;}	ʒieht?
!LO:TX:a:t=Chor	!
{4g	O
=9	=9
4.ee	nein,
8dd	o
8ff	nein,
8ee	o
8dd	nein,
8cc	o
=10	=10
(4bqq/	.
2a)	nein!
8r}	.
{8a	Sein
8cc	Va-
8a	-ter-
=11	=11
8gL	-land
8ccJ	.
8ccL	muß
8eeJ	.
8.eeL	grö-
16dd	.
8ccJ	.
8b	-ßer
=12	=12
2cc	ſein.
4r}	.
{4g	O
=13	=13
4.ee	nein,
8dd	o
8ff	nein,
8ee	o
8dd	nein,
8cc	o
=14	=14
(4bqq/	.
2a)	nein!
8r}	.
{8a	Sein
8cc	Va-
8a	-ter-
=15	=15
8gL	-land
8ccJ	.
8ccL	muß
8eeJ	.
8.eeL	grö-
16dd	.
8ccJ	.
8b	-ßer
=16	=16
2cc	ſein.
8r}	.
==	==
!!!AGN: politisch, national, Vaterlands - Lied
!!!GTL: Vaterlandslieder und Heimathgrüße
!!!ONB: ESAC (Essen Associative Code) Database: BOEHME
!!!AMT: simple quadruple
!!!AIN: vox
!!!EED: Helmut Schaffrath
!!!EEV: 1.0
!! Mel. v. J. Cotta. 1815.
!!Text: E. Moritz Arndt
!!@@COMMENT:"Gedict von C. Moritz; Arndt 1813. Zuerst gedruct in "Deutsche Wehrlieder für das Königl. Preuß. Frei-Corps." 1. Sammlung. Ostern 1813 (mit einer Vorrede von Fr. Ludwig
!! Jahn); dann in „Lieder für Deutsche von C. M. Arndt. Jm Jahr der Freiheit 1813." (Leipzig, J.B.G. Fleischer 1813) S. 99 (Vergl. Hoffmann, Volksthüml. Lieder Nr. 908.) — Dieses Vater-
!! landslied wurde zuerst komp. von dem musikgeübten Jenenser Studenten Johannes Cotta (geb. zu Ruhla 24. Mai 1794, + 1868 als Pfarrer zu Willerstedt bei Weimar)."
!!@@END:
!!!URL-scan: https://archive.org/details/BoehmeVtLieder1895/page/n27/mode/2up
!!!ENC: Anna Maria Matuszewska
!!!EEV: 2024/26/03
*-	*-
